icons/ge.svg

<?xml version="1.0" ?>
<svg xmlns="http://www.w3.org/2000/svg" xmlns:ev="http://www.w3.org/2001/xml-events" xmlns:xlink="http://www.w3.org/1999/xlink" baseProfile="full" height="309px" version="1.1" viewBox="-1024.687586102778 1965.4700703674275 12287.025371610616 6313.25438010596" width="600px">
	<defs/>
	<path d="M 285.0,7743.0 C 274.0,7741.0 242.0,7730.0 214.0,7719.0 C 157.0,7697.0 135.0,7666.0 99.0,7563.0 C 89.0,7532.0 73.0,7495.0 64.0,7482.0 C 47.0,7455.0 -2.0,7319.0 4.0,7313.0 C 6.0,7311.0 32.0,7307.0 61.0,7303.0 C 103.0,7298.0 123.0,7290.0 152.0,7264.0 C 197.0,7224.0 234.0,7204.0 283.0,7195.0 C 312.0,7189.0 324.0,7179.0 344.0,7146.0 C 373.0,7096.0 399.0,7001.0 393.0,6967.0 C 389.0,6949.0 395.0,6937.0 414.0,6922.0 C 429.0,6911.0 450.0,6881.0 461.0,6855.0 L 482.0,6808.0 L 504.0,6829.0 C 535.0,6858.0 565.0,6855.0 610.0,6820.0 C 631.0,6804.0 671.0,6784.0 700.0,6777.0 C 737.0,6767.0 769.0,6749.0 807.0,6715.0 C 857.0,6671.0 864.0,6668.0 898.0,6675.0 C 953.0,6686.0 1049.0,6681.0 1104.0,6664.0 C 1131.0,6656.0 1167.0,6650.0 1182.0,6650.0 C 1227.0,6650.0 1275.0,6607.0 1290.0,6554.0 C 1297.0,6529.0 1311.0,6503.0 1322.0,6497.0 C 1332.0,6490.0 1340.0,6481.0 1340.0,6476.0 C 1340.0,6470.0 1352.0,6454.0 1366.0,6438.0 L 1393.0,6411.0 L 1418.0,6430.0 C 1451.0,6456.0 1492.0,6455.0 1517.0,6428.0 C 1555.0,6387.0 1610.0,6252.0 1610.0,6201.0 C 1610.0,6159.0 1615.0,6148.0 1661.0,6097.0 C 1706.0,6047.0 1714.0,6041.0 1732.0,6051.0 C 1768.0,6071.0 1838.0,6056.0 1874.0,6021.0 C 1899.0,5997.0 1915.0,5990.0 1945.0,5990.0 C 2011.0,5989.0 2073.0,5970.0 2104.0,5942.0 C 2120.0,5927.0 2150.0,5878.0 2170.0,5833.0 C 2215.0,5736.0 2250.0,5546.0 2250.0,5396.0 C 2250.0,5292.0 2271.0,5220.0 2321.0,5145.0 C 2335.0,5123.0 2351.0,5085.0 2355.0,5060.0 C 2359.0,5035.0 2369.0,5007.0 2378.0,4997.0 C 2388.0,4985.0 2393.0,4965.0 2391.0,4940.0 C 2390.0,4916.0 2395.0,4891.0 2406.0,4876.0 C 2419.0,4855.0 2422.0,4829.0 2421.0,4747.0 L 2419.0,4645.0 L 2470.0,4565.0 C 2572.0,4406.0 2581.0,4376.0 2596.0,4128.0 C 2603.0,4022.0 2602.0,4022.0 2572.0,3968.0 C 2555.0,3938.0 2538.0,3895.0 2534.0,3871.0 C 2525.0,3816.0 2425.0,3679.0 2380.0,3660.0 C 2361.0,3652.0 2339.0,3629.0 2321.0,3596.0 C 2304.0,3568.0 2271.0,3516.0 2246.0,3481.0 C 2220.0,3445.0 2200.0,3413.0 2200.0,3409.0 C 2200.0,3405.0 2225.0,3399.0 2256.0,3395.0 C 2297.0,3390.0 2320.0,3381.0 2346.0,3358.0 C 2377.0,3331.0 2388.0,3327.0 2434.0,3329.0 C 2475.0,3330.0 2490.0,3327.0 2504.0,3311.0 C 2514.0,3300.0 2539.0,3289.0 2559.0,3285.0 C 2586.0,3281.0 2601.0,3271.0 2613.0,3251.0 C 2636.0,3212.0 2678.0,3204.0 2690.0,3236.0 C 2695.0,3249.0 2711.0,3262.0 2725.0,3266.0 C 2740.0,3270.0 2761.0,3288.0 2774.0,3309.0 C 2787.0,3329.0 2816.0,3359.0 2840.0,3375.0 L 2882.0,3404.0 L 2914.0,3386.0 C 2931.0,3376.0 2963.0,3358.0 2984.0,3347.0 L 3023.0,3326.0 L 3061.0,3348.0 C 3093.0,3367.0 3103.0,3368.0 3124.0,3358.0 C 3146.0,3349.0 3153.0,3350.0 3169.0,3364.0 C 3188.0,3381.0 3191.0,3381.0 3243.0,3351.0 C 3283.0,3328.0 3310.0,3320.0 3346.0,3320.0 C 3378.0,3320.0 3400.0,3314.0 3414.0,3301.0 C 3439.0,3279.0 3493.0,3260.0 3531.0,3260.0 C 3550.0,3260.0 3574.0,3247.0 3600.0,3223.0 L 3641.0,3187.0 L 3676.0,3203.0 C 3695.0,3213.0 3719.0,3234.0 3728.0,3252.0 C 3737.0,3269.0 3764.0,3305.0 3788.0,3332.0 C 3811.0,3359.0 3830.0,3391.0 3830.0,3404.0 C 3830.0,3466.0 3841.0,3487.0 3886.0,3508.0 C 3944.0,3537.0 4104.0,3540.0 4114.0,3514.0 C 4119.0,3501.0 4129.0,3499.0 4164.0,3504.0 L 4209.0,3511.0 L 4203.0,3453.0 C 4199.0,3414.0 4191.0,3391.0 4178.0,3380.0 C 4160.0,3366.0 4161.0,3363.0 4204.0,3328.0 L 4249.0,3290.0 L 4281.0,3323.0 L 4314.0,3355.0 L 4329.0,3317.0 C 4342.0,3286.0 4349.0,3280.0 4368.0,3285.0 C 4385.0,3289.0 4392.0,3285.0 4399.0,3268.0 C 4404.0,3255.0 4420.0,3234.0 4434.0,3221.0 C 4448.0,3207.0 4460.0,3189.0 4460.0,3181.0 C 4461.0,3155.0 4557.0,3060.0 4583.0,3060.0 C 4612.0,3060.0 4642.0,3032.0 4660.0,2991.0 C 4669.0,2969.0 4679.0,2960.0 4696.0,2960.0 C 4708.0,2960.0 4722.0,2955.0 4726.0,2949.0 C 4729.0,2943.0 4742.0,2941.0 4755.0,2944.0 C 4771.0,2948.0 4780.0,2945.0 4784.0,2934.0 C 4794.0,2907.0 4791.0,2890.0 4775.0,2890.0 C 4747.0,2890.0 4703.0,2861.0 4697.0,2840.0 C 4692.0,2822.0 4697.0,2820.0 4733.0,2820.0 C 4756.0,2820.0 4781.0,2816.0 4788.0,2812.0 C 4794.0,2807.0 4811.0,2773.0 4823.0,2734.0 C 4851.0,2654.0 4860.0,2649.0 4930.0,2679.0 C 4979.0,2700.0 5042.0,2705.0 5111.0,2694.0 C 5142.0,2689.0 5150.0,2681.0 5173.0,2634.0 C 5188.0,2604.0 5200.0,2568.0 5200.0,2555.0 C 5200.0,2524.0 5200.0,2524.0 5286.0,2554.0 C 5340.0,2573.0 5359.0,2576.0 5375.0,2567.0 C 5393.0,2557.0 5457.0,2548.0 5610.0,2534.0 L 5665.0,2529.0 L 5732.0,2589.0 L 5798.0,2650.0 L 5904.0,2650.0 C 5986.0,2650.0 6021.0,2655.0 6065.0,2671.0 C 6105.0,2686.0 6133.0,2690.0 6158.0,2686.0 C 6266.0,2667.0 6266.0,2667.0 6283.0,2693.0 C 6292.0,2707.0 6302.0,2730.0 6306.0,2745.0 C 6310.0,2760.0 6323.0,2775.0 6338.0,2781.0 C 6359.0,2789.0 6368.0,2786.0 6394.0,2762.0 C 6455.0,2704.0 6490.0,2698.0 6565.0,2731.0 L 6613.0,2752.0 L 6661.0,2730.0 C 6716.0,2704.0 6790.0,2706.0 6834.0,2736.0 C 6859.0,2752.0 6861.0,2751.0 6890.0,2721.0 C 6915.0,2694.0 6922.0,2691.0 6939.0,2700.0 C 6951.0,2706.0 6967.0,2724.0 6975.0,2740.0 C 6988.0,2766.0 6996.0,2770.0 7031.0,2770.0 C 7053.0,2770.0 7084.0,2763.0 7100.0,2755.0 C 7124.0,2742.0 7153.0,2741.0 7255.0,2746.0 C 7400.0,2754.0 7403.0,2757.0 7344.0,2839.0 L 7309.0,2889.0 L 7334.0,2905.0 C 7357.0,2920.0 7361.0,2920.0 7419.0,2891.0 C 7452.0,2874.0 7490.0,2860.0 7502.0,2860.0 C 7517.0,2860.0 7583.0,2911.0 7700.0,3016.0 C 8033.0,3313.0 8053.0,3324.0 8144.0,3254.0 L 8190.0,3219.0 L 8273.0,3225.0 L 8355.0,3231.0 L 8382.0,3190.0 C 8406.0,3156.0 8415.0,3150.0 8446.0,3150.0 C 8506.0,3150.0 8563.0,3129.0 8602.0,3092.0 C 8638.0,3058.0 8640.0,3057.0 8699.0,3064.0 C 8733.0,3068.0 8760.0,3068.0 8760.0,3064.0 C 8760.0,3060.0 8744.0,3040.0 8725.0,3019.0 C 8706.0,2997.0 8690.0,2976.0 8690.0,2971.0 C 8690.0,2958.0 8804.0,2860.0 8875.0,2813.0 C 8908.0,2791.0 8973.0,2761.0 9019.0,2745.0 C 9124.0,2710.0 9206.0,2714.0 9305.0,2759.0 C 9352.0,2780.0 9379.0,2787.0 9403.0,2783.0 C 9421.0,2780.0 9454.0,2783.0 9475.0,2789.0 L 9514.0,2800.0 L 9615.0,2701.0 C 9718.0,2600.0 9749.0,2577.0 9772.0,2584.0 C 9831.0,2603.0 9838.0,2601.0 9850.0,2566.0 C 9865.0,2520.0 9893.0,2498.0 9937.0,2496.0 C 9973.0,2495.0 9974.0,2497.0 9995.0,2550.0 C 10014.0,2601.0 10019.0,2605.0 10050.0,2608.0 C 10115.0,2613.0 10130.0,2620.0 10143.0,2653.0 C 10151.0,2670.0 10169.0,2691.0 10183.0,2699.0 C 10205.0,2711.0 10210.0,2721.0 10210.0,2749.0 C 10210.0,2769.0 10216.0,2794.0 10223.0,2805.0 C 10237.0,2825.0 10238.0,2932.0 10225.0,3016.0 C 10219.0,3053.0 10214.0,3058.0 10169.0,3078.0 C 10131.0,3094.0 10116.0,3106.0 10105.0,3134.0 C 10090.0,3168.0 10087.0,3170.0 10041.0,3170.0 C 10010.0,3170.0 9988.0,3175.0 9980.0,3185.0 C 9973.0,3193.0 9960.0,3200.0 9951.0,3200.0 C 9941.0,3200.0 9911.0,3220.0 9884.0,3245.0 C 9857.0,3270.0 9827.0,3290.0 9817.0,3290.0 C 9808.0,3290.0 9795.0,3301.0 9790.0,3314.0 C 9785.0,3328.0 9770.0,3340.0 9753.0,3345.0 C 9738.0,3348.0 9718.0,3357.0 9710.0,3364.0 C 9702.0,3372.0 9682.0,3380.0 9667.0,3384.0 C 9645.0,3389.0 9640.0,3395.0 9645.0,3409.0 C 9649.0,3422.0 9642.0,3437.0 9625.0,3454.0 C 9611.0,3468.0 9600.0,3491.0 9600.0,3505.0 C 9600.0,3526.0 9605.0,3530.0 9629.0,3530.0 C 9666.0,3530.0 9674.0,3552.0 9649.0,3584.0 C 9632.0,3606.0 9625.0,3608.0 9608.0,3599.0 C 9587.0,3587.0 9570.0,3600.0 9570.0,3628.0 C 9570.0,3644.0 9565.0,3643.0 9529.0,3624.0 C 9513.0,3616.0 9491.0,3612.0 9481.0,3615.0 C 9450.0,3624.0 9420.0,3710.0 9420.0,3785.0 C 9420.0,3862.0 9438.0,3912.0 9475.0,3936.0 C 9497.0,3950.0 9507.0,3951.0 9539.0,3941.0 C 9609.0,3921.0 9602.0,3916.0 9716.0,4045.0 C 9758.0,4094.0 9773.0,4120.0 9788.0,4176.0 L 9807.0,4245.0 L 9780.0,4279.0 C 9753.0,4310.0 9746.0,4313.0 9668.0,4321.0 C 9590.0,4328.0 9583.0,4331.0 9560.0,4361.0 C 9494.0,4447.0 9507.0,4442.0 9394.0,4429.0 C 9339.0,4422.0 9285.0,4420.0 9276.0,4423.0 C 9267.0,4427.0 9253.0,4445.0 9245.0,4464.0 C 9229.0,4503.0 9207.0,4515.0 9190.0,4495.0 C 9179.0,4482.0 9175.0,4482.0 9157.0,4495.0 C 9129.0,4514.0 9100.0,4514.0 9072.0,4494.0 C 9051.0,4480.0 9050.0,4480.0 9050.0,4499.0 C 9050.0,4510.0 9041.0,4524.0 9030.0,4530.0 C 9018.0,4536.0 9010.0,4551.0 9010.0,4566.0 C 9010.0,4612.0 8976.0,4647.0 8923.0,4655.0 C 8836.0,4667.0 8803.0,4682.0 8741.0,4735.0 C 8697.0,4774.0 8670.0,4790.0 8638.0,4795.0 C 8607.0,4801.0 8586.0,4812.0 8563.0,4838.0 C 8534.0,4869.0 8531.0,4879.0 8536.0,4910.0 C 8540.0,4929.0 8555.0,4968.0 8571.0,4996.0 C 8615.0,5074.0 8656.0,5179.0 8674.0,5260.0 C 8683.0,5300.0 8698.0,5349.0 8706.0,5368.0 C 8720.0,5403.0 8720.0,5404.0 8689.0,5436.0 C 8645.0,5482.0 8520.0,5529.0 8389.0,5550.0 C 8325.0,5560.0 8318.0,5558.0 8221.0,5525.0 C 8166.0,5506.0 8113.0,5490.0 8102.0,5490.0 C 8090.0,5490.0 8079.0,5503.0 8070.0,5528.0 C 8054.0,5574.0 8004.0,5637.0 7978.0,5646.0 C 7967.0,5649.0 7950.0,5671.0 7940.0,5695.0 C 7929.0,5720.0 7906.0,5749.0 7883.0,5766.0 C 7862.0,5781.0 7829.0,5811.0 7809.0,5832.0 C 7767.0,5875.0 7746.0,5878.0 7690.0,5850.0 C 7618.0,5813.0 7590.0,5821.0 7505.0,5901.0 C 7421.0,5982.0 7406.0,5984.0 7331.0,5935.0 C 7294.0,5910.0 7292.0,5906.0 7288.0,5849.0 C 7285.0,5803.0 7278.0,5784.0 7258.0,5762.0 C 7233.0,5737.0 7232.0,5733.0 7246.0,5707.0 C 7259.0,5683.0 7259.0,5679.0 7245.0,5674.0 C 7219.0,5664.0 7200.0,5678.0 7200.0,5707.0 C 7200.0,5737.0 7125.0,5874.0 7094.0,5902.0 C 7071.0,5921.0 6941.0,5950.0 6872.0,5950.0 C 6818.0,5950.0 6743.0,5927.0 6663.0,5886.0 C 6618.0,5864.0 6598.0,5860.0 6521.0,5860.0 L 6431.0,5860.0 L 6419.0,5818.0 C 6403.0,5757.0 6359.0,5682.0 6335.0,5675.0 C 6324.0,5672.0 6267.0,5665.0 6207.0,5660.0 C 6088.0,5650.0 6052.0,5635.0 6006.0,5575.0 C 5971.0,5529.0 5944.0,5530.0 5884.0,5580.0 C 5837.0,5619.0 5835.0,5619.0 5746.0,5622.0 L 5655.0,5625.0 L 5636.0,5663.0 L 5618.0,5701.0 L 5661.0,5763.0 C 5685.0,5797.0 5712.0,5831.0 5722.0,5838.0 C 5732.0,5845.0 5747.0,5864.0 5755.0,5879.0 L 5769.0,5907.0 L 5707.0,5945.0 C 5667.0,5969.0 5624.0,5985.0 5585.0,5991.0 C 5535.0,5999.0 5521.0,6006.0 5500.0,6033.0 C 5436.0,6116.0 5345.0,6175.0 5250.0,6195.0 C 5231.0,6199.0 5208.0,6208.0 5200.0,6215.0 C 5183.0,6229.0 5094.0,6250.0 5050.0,6250.0 C 5034.0,6250.0 5000.0,6261.0 4974.0,6275.0 C 4944.0,6291.0 4911.0,6300.0 4883.0,6300.0 C 4823.0,6300.0 4776.0,6327.0 4683.0,6411.0 C 4640.0,6451.0 4584.0,6503.0 4558.0,6527.0 L 4510.0,6571.0 L 4525.0,6612.0 C 4543.0,6665.0 4535.0,6676.0 4462.0,6690.0 C 4395.0,6704.0 4368.0,6719.0 4318.0,6773.0 C 4285.0,6808.0 4277.0,6812.0 4258.0,6803.0 C 4241.0,6796.0 4225.0,6798.0 4193.0,6812.0 C 4160.0,6826.0 4146.0,6828.0 4130.0,6820.0 C 4116.0,6812.0 4104.0,6812.0 4090.0,6820.0 C 4060.0,6836.0 4036.0,6824.0 4019.0,6787.0 C 3997.0,6737.0 3956.0,6738.0 3867.0,6792.0 C 3827.0,6815.0 3777.0,6851.0 3755.0,6871.0 C 3701.0,6920.0 3664.0,6930.0 3545.0,6930.0 C 3474.0,6930.0 3438.0,6934.0 3425.0,6944.0 C 3411.0,6954.0 3399.0,6955.0 3381.0,6948.0 C 3367.0,6943.0 3347.0,6940.0 3336.0,6941.0 C 3274.0,6945.0 3251.0,6938.0 3188.0,6890.0 L 3122.0,6840.0 L 3003.0,6871.0 C 2834.0,6916.0 2828.0,6916.0 2784.0,6886.0 C 2734.0,6852.0 2697.0,6853.0 2641.0,6890.0 C 2602.0,6914.0 2583.0,6920.0 2520.0,6922.0 C 2479.0,6924.0 2429.0,6921.0 2410.0,6917.0 C 2376.0,6910.0 2374.0,6911.0 2322.0,6979.0 C 2276.0,7039.0 2261.0,7051.0 2209.0,7070.0 C 2163.0,7088.0 2150.0,7097.0 2150.0,7113.0 C 2150.0,7125.0 2138.0,7147.0 2123.0,7162.0 C 2098.0,7188.0 2090.0,7190.0 2021.0,7190.0 C 1953.0,7190.0 1937.0,7194.0 1875.0,7227.0 C 1809.0,7261.0 1798.0,7263.0 1685.0,7269.0 L 1564.0,7275.0 L 1510.0,7315.0 C 1480.0,7336.0 1431.0,7376.0 1401.0,7403.0 C 1344.0,7454.0 1268.0,7496.0 1185.0,7524.0 C 1147.0,7536.0 1126.0,7551.0 1100.0,7585.0 L 1065.0,7631.0 L 1004.0,7627.0 C 957.0,7625.0 932.0,7618.0 900.0,7596.0 C 861.0,7570.0 851.0,7568.0 791.0,7572.0 C 719.0,7577.0 682.0,7593.0 604.0,7650.0 C 571.0,7675.0 534.0,7692.0 496.0,7700.0 C 463.0,7707.0 423.0,7721.0 406.0,7731.0 C 377.0,7749.0 331.0,7753.0 285.0,7743.0" fill="pink"/>
</svg>

<?xml version="1.0" standalone="no"?>
<!DOCTYPE svg PUBLIC "-//W3C//DTD SVG 20010904//EN"
 "http://www.w3.org/TR/2001/REC-SVG-20010904/DTD/svg10.dtd">
<svg version="1.0" xmlns="http://www.w3.org/2000/svg"
 width="1024.000000pt" height="1024.000000pt" viewBox="0 0 1024.000000 1024.000000"
 preserveAspectRatio="xMidYMid meet">
<metadata>
Created by potrace 1.10, written by Peter Selinger 2001-2011
</metadata>
<g transform="translate(0.000000,1024.000000) scale(0.100000,-0.100000)"
fill="#000000" stroke="none">
<path d="M285 7743 c-11 -2 -43 -13 -71 -24 -57 -22 -79 -53 -115 -156 -10
-31 -26 -68 -35 -81 -17 -27 -66 -163 -60 -169 2 -2 28 -6 57 -10 42 -5 62
-13 91 -39 45 -40 82 -60 131 -69 29 -6 41 -16 61 -49 29 -50 55 -145 49 -179
-4 -18 2 -30 21 -45 15 -11 36 -41 47 -67 l21 -47 22 21 c31 29 61 26 106 -9
21 -16 61 -36 90 -43 37 -10 69 -28 107 -62 50 -44 57 -47 91 -40 55 11 151 6
206 -11 27 -8 63 -14 78 -14 45 0 93 -43 108 -96 7 -25 21 -51 32 -57 10 -7
18 -16 18 -21 0 -6 12 -22 26 -38 l27 -27 25 19 c33 26 74 25 99 -2 38 -41 93
-176 93 -227 0 -42 5 -53 51 -104 45 -50 53 -56 71 -46 36 20 106 5 142 -30
25 -24 41 -31 71 -31 66 -1 128 -20 159 -48 16 -15 46 -64 66 -109 45 -97 80
-287 80 -437 0 -104 21 -176 71 -251 14 -22 30 -60 34 -85 4 -25 14 -53 23
-63 10 -12 15 -32 13 -57 -1 -24 4 -49 15 -64 13 -21 16 -47 15 -129 l-2 -102
51 -80 c102 -159 111 -189 126 -437 7 -106 6 -106 -24 -160 -17 -30 -34 -73
-38 -97 -9 -55 -109 -192 -154 -211 -19 -8 -41 -31 -59 -64 -17 -28 -50 -80
-75 -115 -26 -36 -46 -68 -46 -72 0 -4 25 -10 56 -14 41 -5 64 -14 90 -37 31
-27 42 -31 88 -29 41 1 56 -2 70 -18 10 -11 35 -22 55 -26 27 -4 42 -14 54
-34 23 -39 65 -47 77 -15 5 13 21 26 35 30 15 4 36 22 49 43 13 20 42 50 66
66 l42 29 32 -18 c17 -10 49 -28 70 -39 l39 -21 38 22 c32 19 42 20 63 10 22
-9 29 -8 45 6 19 17 22 17 74 -13 40 -23 67 -31 103 -31 32 0 54 -6 68 -19 25
-22 79 -41 117 -41 19 0 43 -13 69 -37 l41 -36 35 16 c19 10 43 31 52 49 9 17
36 53 60 80 23 27 42 59 42 72 0 62 11 83 56 104 58 29 218 32 228 6 5 -13 15
-15 50 -10 l45 7 -6 -58 c-4 -39 -12 -62 -25 -73 -18 -14 -17 -17 26 -52 l45
-38 32 33 33 32 15 -38 c13 -31 20 -37 39 -32 17 4 24 0 31 -17 5 -13 21 -34
35 -47 14 -14 26 -32 26 -40 1 -26 97 -121 123 -121 29 0 59 -28 77 -69 9 -22
19 -31 36 -31 12 0 26 -5 30 -11 3 -6 16 -8 29 -5 16 4 25 1 29 -10 10 -27 7
-44 -9 -44 -28 0 -72 -29 -78 -50 -5 -18 0 -20 36 -20 23 0 48 -4 55 -8 6 -5
23 -39 35 -78 28 -80 37 -85 107 -55 49 21 112 26 181 15 31 -5 39 -13 62 -60
15 -30 27 -66 27 -79 0 -31 0 -31 86 -1 54 19 73 22 89 13 18 -10 82 -19 235
-33 l55 -5 67 60 66 61 106 0 c82 0 117 5 161 21 40 15 68 19 93 15 108 -19
108 -19 125 7 9 14 19 37 23 52 4 15 17 30 32 36 21 8 30 5 56 -19 61 -58 96
-64 171 -31 l48 21 48 -22 c55 -26 129 -24 173 6 25 16 27 15 56 -15 25 -27
32 -30 49 -21 12 6 28 24 36 40 13 26 21 30 56 30 22 0 53 -7 69 -15 24 -13
53 -14 155 -9 145 8 148 11 89 93 l-35 50 25 16 c23 15 27 15 85 -14 33 -17
71 -31 83 -31 15 0 81 51 198 156 333 297 353 308 444 238 l46 -35 83 6 82 6
27 -41 c24 -34 33 -40 64 -40 60 0 117 -21 156 -58 36 -34 38 -35 97 -28 34 4
61 4 61 0 0 -4 -16 -24 -35 -45 -19 -22 -35 -43 -35 -48 0 -13 114 -111 185
-158 33 -22 98 -52 144 -68 105 -35 187 -31 286 14 47 21 74 28 98 24 18 -3
51 0 72 6 l39 11 101 -99 c103 -101 134 -124 157 -117 59 19 66 17 78 -18 15
-46 43 -68 87 -70 36 -1 37 1 58 54 19 51 24 55 55 58 65 5 80 12 93 45 8 17
26 38 40 46 22 12 27 22 27 50 0 20 6 45 13 56 14 20 15 127 2 211 -6 37 -11
42 -56 62 -38 16 -53 28 -64 56 -15 34 -18 36 -64 36 -31 0 -53 5 -61 15 -7 8
-20 15 -29 15 -10 0 -40 20 -67 45 -27 25 -57 45 -67 45 -9 0 -22 11 -27 24
-5 14 -20 26 -37 31 -15 3 -35 12 -43 19 -8 8 -28 16 -43 20 -22 5 -27 11 -22
25 4 13 -3 28 -20 45 -14 14 -25 37 -25 51 0 21 5 25 29 25 37 0 45 22 20 54
-17 22 -24 24 -41 15 -21 -12 -38 1 -38 29 0 16 -5 15 -41 -4 -16 -8 -38 -12
-48 -9 -31 9 -61 95 -61 170 0 77 18 127 55 151 22 14 32 15 64 5 70 -20 63
-25 177 104 42 49 57 75 72 131 l19 69 -27 34 c-27 31 -34 34 -112 42 -78 7
-85 10 -108 40 -66 86 -53 81 -166 68 -55 -7 -109 -9 -118 -6 -9 4 -23 22 -31
41 -16 39 -38 51 -55 31 -11 -13 -15 -13 -33 0 -28 19 -57 19 -85 -1 -21 -14
-22 -14 -22 5 0 11 -9 25 -20 31 -12 6 -20 21 -20 36 0 46 -34 81 -87 89 -87
12 -120 27 -182 80 -44 39 -71 55 -103 60 -31 6 -52 17 -75 43 -29 31 -32 41
-27 72 4 19 19 58 35 86 44 78 85 183 103 264 9 40 24 89 32 108 14 35 14 36
-17 68 -44 46 -169 93 -300 114 -64 10 -71 8 -168 -25 -55 -19 -108 -35 -119
-35 -12 0 -23 13 -32 38 -16 46 -66 109 -92 118 -11 3 -28 25 -38 49 -11 25
-34 54 -57 71 -21 15 -54 45 -74 66 -42 43 -63 46 -119 18 -72 -37 -100 -29
-185 51 -84 81 -99 83 -174 34 -37 -25 -39 -29 -43 -86 -3 -46 -10 -65 -30
-87 -25 -25 -26 -29 -12 -55 13 -24 13 -28 -1 -33 -26 -10 -45 4 -45 33 0 30
-75 167 -106 195 -23 19 -153 48 -222 48 -54 0 -129 -23 -209 -64 -45 -22 -65
-26 -142 -26 l-90 0 -12 -42 c-16 -61 -60 -136 -84 -143 -11 -3 -68 -10 -128
-15 -119 -10 -155 -25 -201 -85 -35 -46 -62 -45 -122 5 -47 39 -49 39 -138 42
l-91 3 -19 38 -18 38 43 62 c24 34 51 68 61 75 10 7 25 26 33 41 l14 28 -62
38 c-40 24 -83 40 -122 46 -50 8 -64 15 -85 42 -64 83 -155 142 -250 162 -19
4 -42 13 -50 20 -17 14 -106 35 -150 35 -16 0 -50 11 -76 25 -30 16 -63 25
-91 25 -60 0 -107 27 -200 111 -43 40 -99 92 -125 116 l-48 44 15 41 c18 53
10 64 -63 78 -67 14 -94 29 -144 83 -33 35 -41 39 -60 30 -17 -7 -33 -5 -65 9
-33 14 -47 16 -63 8 -14 -8 -26 -8 -40 0 -30 16 -54 4 -71 -33 -22 -50 -63
-49 -152 5 -40 23 -90 59 -112 79 -54 49 -91 59 -210 59 -71 0 -107 4 -120 14
-14 10 -26 11 -44 4 -14 -5 -34 -8 -45 -7 -62 4 -85 -3 -148 -51 l-66 -50
-119 31 c-169 45 -175 45 -219 15 -50 -34 -87 -33 -143 4 -39 24 -58 30 -121
32 -41 2 -91 -1 -110 -5 -34 -7 -36 -6 -88 62 -46 60 -61 72 -113 91 -46 18
-59 27 -59 43 0 12 -12 34 -27 49 -25 26 -33 28 -102 28 -68 0 -84 4 -146 37
-66 34 -77 36 -190 42 l-121 6 -54 40 c-30 21 -79 61 -109 88 -57 51 -133 93
-216 121 -38 12 -59 27 -85 61 l-35 46 -61 -4 c-47 -2 -72 -9 -104 -31 -39
-26 -49 -28 -109 -24 -72 5 -109 21 -187 78 -33 25 -70 42 -108 50 -33 7 -73
21 -90 31 -29 18 -75 22 -121 12z"/>
</g>
</svg>
